public/twemojimobilephone1.svg

<svg width="41" height="41" viewBox="0 0 41 41" fill="none" xmlns="http://www.w3.org/2000/svg">
<g clip-path="url(#clip0_1290_1629)">
<path d="M12.7218 40.5C12.7218 40.5 8.27734 40.5 8.27734 36.0556V4.94444C8.27734 4.94444 8.27734 0.5 12.7218 0.5H28.2773C28.2773 0.5 32.7218 0.5 32.7218 4.94444V36.0556C32.7218 36.0556 32.7218 40.5 28.2773 40.5H12.7218Z" fill="#31373D"/>
<path d="M10.5 6.05469H30.5V34.9436H10.5V6.05469Z" fill="#55ACEE"/>
</g>
<defs>
<clipPath id="clip0_1290_1629">
<rect width="40" height="40" fill="white" transform="translate(0.5 0.5)"/>
</clipPath>
</defs>
</svg>

<svg width="41" height="41" fill="none" xmlns="http://www.w3.org/2000/svg"><g clip-path="url(#a)"><path d="M12.722 40.5s-4.445 0-4.445-4.444V4.944S8.277.5 12.722.5h15.555s4.445 0 4.445 4.444v31.112s0 4.444-4.445 4.444H12.722z" fill="#31373D"/><path d="M10.5 6.055h20v28.889h-20V6.054z" fill="#55ACEE"/></g><defs><clipPath id="a"><path fill="#fff" transform="translate(.5 .5)" d="M0 0h40v40H0z"/></clipPath></defs></svg>
